X: 34552
T: Ringing Harp, The
R: slip jig
M: 9/8
K: Adorian
EAB cBAB2G|EAB cBA GED|EAB cBAB2d|
[1gfe dBA BGD:|2 gfe dBA Bcd||
e2a eaf ged|eaa bag edB|
[1e2a eaf ged|c2A BGG Bcd:|
[2eaa egg e2f|gfe dBA BGD||

